X:52
M:2/4
L:1/8
Q:1/4=140
K:Bb
|:B>AB>A|d>Bd>B|e>ce>c|f>f f2|B>AB>A|d>Bd>B|eedc|BB B2:|

